X:1
T:Brendan McGlinchey's (C whistle 1 note high)
T:Splendid Isolation
M:4/4
L:1/8
S:Laurence Nugent #1, Track 3
R:Slow Reel
K:GDor
F|G2AG FGAF|G2AG FGAc|dAcA G2Ac|dgg^f ~g3 a|/
bggf gfde|~f3 g fdcA|GcAG FGAc|dAcA G3 :||/
^f|~g2ag fd~d2|gfdc Acdc|AG~G2 Acdc|AG~G2 FGAG|/
DFFD ~F3 D|GcAG FGAc|dg~g2 ^fgag|=fdcA G3 :||/
